X:380
T: Willie Reidy's Favorite
S: "Johnny O'Leary of Sliabh Luachra" (#336)
Z: B.Black
L: 1/8
M: 12/8
Q: 350
R: slide
K: G
B2G Bdd B2G Bcd|A2D ABc A2F A2c|
B2G Bcd B2G B2d|AFA DFA G3 G2A :|
g2g d2d gfg d3|f2f A2A fef A3|
g2g def g2a bag|fed cBA G3 G3 :|
